// starts the server // shorthand for Server.local.boot. The local server is stored in the s variable
s.boot;

// foo.bar() // Foo is the "receiver" Bar is the "message"
3.cubed // press SHIFT + RETURN to print it in console

// we create a block and can execute it all with COMMAND + RETURN
(
var number; // local varuable
number = 3.squared;
)

// enviroinment (global) variables. start with tilde
~globalNUmber = 1000;


s.quit;